img/gallery-bg.svg

<svg width="1920" height="403" fill="none" xmlns="http://www.w3.org/2000/svg"><mask id="a" style="mask-type:alpha" maskUnits="userSpaceOnUse" x="0" y="0" width="1920" height="403"><path fill="#D9D9D9" d="M0 0h1920v403H0z"/></mask><g mask="url(#a)" fill="#242424"><path d="M1640.54 250.192c-.51 5.248-6.14 7.68-6.14 7.68h26.88s-5.63-3.328-6.02-7.68a640.41 640.41 0 0 1-1.4-42.624V194.64c0-15.872.12-29.696 1.66-33.152h27.78c15.1 0 20.35 23.68 20.35 23.68s.13-11.648.89-18.816c.64-6.4 2.18-10.368 2.18-10.368s-7.42 1.024-18.43 1.28h-52.35s3.96 1.792 4.48 4.864c1.4 8.064 1.4 22.528 1.4 45.44 0 20.864-.64 34.816-1.28 42.624Zm90.97-44.8 11.65-41.6c2.17 7.296 6.14 21.12 10.88 41.6h-22.53Zm-27.26 52.48h20.73s-6.27-1.92-6.27-6.144c0-.384 0-.896.13-1.28l11.39-40.832h24.83c4.1 18.56 7.81 33.024 7.81 41.216 0 4.096-6.27 7.04-6.27 7.04h27.01s-4.23-1.92-5.76-7.04c-2.44-8.192-6.79-23.296-11.27-43.264-4.99-21.76-7.29-35.968-8.45-43.52 0-.384-.12-.64-.12-.896 0-4.48 5.11-5.888 5.11-5.888h-29.69s4.61 2.176 4.61 4.096v.256c-7.81 33.92-16.26 63.872-25.35 88.32-1.79 4.736-8.44 7.936-8.44 7.936Zm163.22-7.168c-2.43-8.192-6.66-23.296-11.14-43.264-4.99-21.76-7.42-35.968-8.57-43.52 0-.384-.13-.64-.13-.896 0-4.48 5.25-5.76 5.25-5.76h-29.83s5 2.048 5 5.248c0 5.888-4.87 21.504-11.52 44.544a697.394 697.394 0 0 1-13.96 42.88c-1.4 4.096-8.7 8.064-8.7 8.064h20.86s-6.14-1.92-6.14-6.144c0-.384 0-.896.13-1.28l24.32-86.4c2.3 7.68 6.4 22.016 11.26 43.264 4.48 19.584 8.32 34.688 8.32 43.264 0 4.096-6.27 7.296-6.27 7.296h27.01s-4.35-2.176-5.89-7.296Zm22.04 2.56c-.51 2.304-4.61 4.608-4.61 4.608h48.38c13.19 0 22.66 1.664 22.66 1.664s-1.54-6.4-2.3-11.52c-.77-6.4-.9-17.792-.9-17.792s-5.25 23.552-20.22 23.68h-27.91c-.51-6.144-1.53-20.48-1.66-44.16h19.45c10.37.384 13.19 7.04 13.19 7.04v-18.432s-2.43 6.656-13.31 6.912l-19.33.128c.13-21.12 1.02-36.736 1.66-43.904h27.78c15.1 0 20.35 23.296 20.35 23.296s.13-11.264.9-17.792c.76-5.12 2.3-11.392 2.3-11.392s-9.47 1.664-22.66 1.664h-48.38s4.1 1.92 4.35 4.224c.64 7.296 1.67 23.424 1.67 45.824 0 25.216-.9 39.68-1.41 45.952Zm112.19-44.8c14.21 0 25.6-11.52 25.6-25.6 0-14.208-11.52-25.856-25.72-25.856l-24.84.256h-9.34s3.97 1.408 4.22 3.072c.9 7.552 1.8 23.168 1.8 47.232 0 24.32-1.03 39.296-1.54 45.952-.38 2.176-4.48 4.352-4.48 4.352h24.06s-4.09-1.536-4.35-3.968c-.89-5.504-1.66-18.944-1.66-40.192v-5.12l16.25-.128Zm-4.09-47.104c10.88.512 19.45 10.496 19.45 21.504 0 10.88-9.08 21.504-20.09 21.504h-11.52c.13-20.608 1.15-35.968 1.66-42.88 2.43-.128 5.12-.128 7.55-.128h2.95Zm45.77 91.904c-.51 2.304-4.6 4.608-4.6 4.608h48.38c13.18 0 22.66 1.664 22.66 1.664s-1.54-6.4-2.31-11.52c-.77-6.4-.89-17.792-.89-17.792s-5.25 23.552-20.23 23.68h-27.9c-.51-6.144-1.54-20.48-1.67-44.16h19.46c10.37.384 13.18 7.04 13.18 7.04v-18.432s-2.43 6.656-13.31 6.912l-19.33.128c.13-21.12 1.03-36.736 1.67-43.904h27.77c15.11 0 20.36 23.296 20.36 23.296s.12-11.264.89-17.792c.77-5.12 2.31-11.392 2.31-11.392s-9.48 1.664-22.66 1.664h-48.38s4.09 1.92 4.35 4.224c.64 7.296 1.66 23.424 1.66 45.824 0 25.216-.89 39.68-1.41 45.952Zm107.08-70.4c0-11.008 8.58-20.864 19.46-21.376 1.28-.128 2.56-.128 3.96-.128 3.46 0 7.17.256 10.37.512.64.896 1.15 1.92 1.28 3.072.77 5.888.9 17.28.9 29.952v9.6h-15.87c-11.01 0-20.1-10.624-20.1-21.632Zm49.28 67.328c-.64-7.808-1.28-21.76-1.28-42.624 0-19.712.77-34.688 1.41-42.88.51-5.12 6.4-7.424 6.4-7.424h-15.23l-25.09-.128c-14.21 0-25.73 11.52-25.73 25.728 0 13.44 10.24 24.448 23.42 25.472l-30.33 37.888-.26.256c-5.89 8.192-14.33 11.264-14.33 11.264l29.95.128s-5.63-1.792-5.63-4.864c0-.512.12-1.28.64-1.92l34.04-42.496 8.71.128c0 19.328-.77 32.896-1.28 40.704-.39 4.352-6.27 8.448-6.27 8.448h27s-5.63-2.432-6.14-7.68ZM-279.456 250.192c-.512 5.248-6.144 7.68-6.144 7.68h26.88s-5.632-3.328-6.016-7.68a637.426 637.426 0 0 1-1.408-42.624V194.64c0-15.872.128-29.696 1.664-33.152h27.776c15.104 0 20.352 23.68 20.352 23.68s.128-11.648.896-18.816c.64-6.4 2.176-10.368 2.176-10.368s-7.424 1.024-18.432 1.28h-52.352s3.968 1.792 4.48 4.864c1.408 8.064 1.408 22.528 1.408 45.44 0 20.864-.64 34.816-1.28 42.624Zm90.965-44.8 11.648-41.6c2.176 7.296 6.144 21.12 10.88 41.6h-22.528Zm-27.264 52.48h20.736s-6.272-1.92-6.272-6.144c0-.384 0-.896.128-1.28l11.392-40.832h24.832c4.096 18.56 7.808 33.024 7.808 41.216 0 4.096-6.272 7.04-6.272 7.04h27.008s-4.224-1.92-5.76-7.04a649.485 649.485 0 0 1-11.264-43.264c-4.992-21.76-7.296-35.968-8.448-43.52 0-.384-.128-.64-.128-.896 0-4.48 5.12-5.888 5.12-5.888h-29.696s4.608 2.176 4.608 4.096v.256c-7.808 33.92-16.256 63.872-25.344 88.32-1.792 4.736-8.448 7.936-8.448 7.936Zm163.225-7.168c-2.432-8.192-6.656-23.296-11.136-43.264-4.992-21.76-7.424-35.968-8.576-43.52 0-.384-.128-.64-.128-.896 0-4.48 5.248-5.76 5.248-5.76h-29.824s4.992 2.048 4.992 5.248c0 5.888-4.864 21.504-11.52 44.544a703.115 703.115 0 0 1-13.952 42.88c-1.408 4.096-8.704 8.064-8.704 8.064h20.864s-6.144-1.92-6.144-6.144c0-.384 0-.896.128-1.28l24.32-86.4c2.304 7.68 6.4 22.016 11.264 43.264 4.48 19.584 8.32 34.688 8.32 43.264 0 4.096-6.272 7.296-6.272 7.296h27.008s-4.352-2.176-5.888-7.296Zm22.038 2.56c-.512 2.304-4.608 4.608-4.608 4.608h48.384c13.184 0 22.656 1.664 22.656 1.664s-1.536-6.4-2.304-11.52c-.768-6.4-.896-17.792-.896-17.792s-5.248 23.552-20.224 23.68h-27.904c-.512-6.144-1.536-20.48-1.664-44.16H2.404c10.368.384 13.184 7.04 13.184 7.04v-18.432s-2.432 6.656-13.312 6.912l-19.328.128c.128-21.12 1.024-36.736 1.664-43.904h27.776c15.104 0 20.352 23.296 20.352 23.296s.128-11.264.896-17.792c.768-5.12 2.304-11.392 2.304-11.392s-9.472 1.664-22.656 1.664H-35.1s4.096 1.92 4.352 4.224c.64 7.296 1.664 23.424 1.664 45.824 0 25.216-.896 39.68-1.408 45.952Zm112.196-44.8c14.208 0 25.6-11.52 25.6-25.6 0-14.208-11.52-25.856-25.728-25.856l-24.832.256H47.4s3.968 1.408 4.224 3.072c.896 7.552 1.792 23.168 1.792 47.232 0 24.32-1.024 39.296-1.536 45.952-.384 2.176-4.48 4.352-4.48 4.352h24.064s-4.096-1.536-4.352-3.968c-.896-5.504-1.664-18.944-1.664-40.192v-5.12l16.256-.128Zm-4.096-47.104c10.88.512 19.456 10.496 19.456 21.504 0 10.88-9.088 21.504-20.096 21.504h-11.52c.128-20.608 1.152-35.968 1.664-42.88 2.432-.128 5.12-.128 7.552-.128h2.944Zm45.775 91.904c-.512 2.304-4.608 4.608-4.608 4.608h48.384c13.184 0 22.656 1.664 22.656 1.664s-1.536-6.4-2.304-11.52c-.768-6.4-.896-17.792-.896-17.792s-5.248 23.552-20.224 23.68h-27.904c-.512-6.144-1.536-20.48-1.664-44.16h19.456c10.368.384 13.184 7.04 13.184 7.04v-18.432s-2.432 6.656-13.312 6.912l-19.328.128c.128-21.12 1.024-36.736 1.664-43.904h27.776c15.104 0 20.352 23.296 20.352 23.296s.128-11.264.896-17.792c.768-5.12 2.304-11.392 2.304-11.392s-9.472 1.664-22.656 1.664h-48.384s4.096 1.92 4.352 4.224c.64 7.296 1.664 23.424 1.664 45.824 0 25.216-.896 39.68-1.408 45.952Zm107.076-70.4c0-11.008 8.576-20.864 19.456-21.376 1.28-.128 2.56-.128 3.968-.128 3.456 0 7.168.256 10.368.512.64.896 1.152 1.92 1.28 3.072.768 5.888.896 17.28.896 29.952v9.6h-15.872c-11.008 0-20.096-10.624-20.096-21.632Zm49.28 67.328c-.64-7.808-1.28-21.76-1.28-42.624 0-19.712.768-34.688 1.408-42.88.512-5.12 6.4-7.424 6.4-7.424h-15.232l-25.088-.128c-14.208 0-25.728 11.52-25.728 25.728 0 13.44 10.24 24.448 23.424 25.472l-30.336 37.888-.256.256c-5.888 8.192-14.336 11.264-14.336 11.264l29.952.128s-5.632-1.792-5.632-4.864c0-.512.128-1.28.64-1.92l34.048-42.496 8.704.128c0 19.328-.768 32.896-1.28 40.704-.384 4.352-6.272 8.448-6.272 8.448h27.008s-5.632-2.432-6.144-7.68Z"/></g></svg>

<svg width="1920" height="403" viewBox="0 0 1920 403" fill="none" xmlns="http://www.w3.org/2000/svg">
<mask id="mask0_131_1205" style="mask-type:alpha" maskUnits="userSpaceOnUse" x="0" y="0" width="1920" height="403">
<rect width="1920" height="403" fill="#D9D9D9"/>
</mask>
<g mask="url(#mask0_131_1205)">
<path d="M1640.54 250.192C1640.03 255.44 1634.4 257.872 1634.4 257.872H1661.28C1661.28 257.872 1655.65 254.544 1655.26 250.192C1654.75 242.256 1653.86 227.536 1653.86 207.568V194.64C1653.86 178.768 1653.98 164.944 1655.52 161.488H1683.3C1698.4 161.488 1703.65 185.168 1703.65 185.168C1703.65 185.168 1703.78 173.52 1704.54 166.352C1705.18 159.952 1706.72 155.984 1706.72 155.984C1706.72 155.984 1699.3 157.008 1688.29 157.264H1635.94C1635.94 157.264 1639.9 159.056 1640.42 162.128C1641.82 170.192 1641.82 184.656 1641.82 207.568C1641.82 228.432 1641.18 242.384 1640.54 250.192ZM1731.51 205.392L1743.16 163.792C1745.33 171.088 1749.3 184.912 1754.04 205.392H1731.51ZM1704.25 257.872H1724.98C1724.98 257.872 1718.71 255.952 1718.71 251.728C1718.71 251.344 1718.71 250.832 1718.84 250.448L1730.23 209.616H1755.06C1759.16 228.176 1762.87 242.64 1762.87 250.832C1762.87 254.928 1756.6 257.872 1756.6 257.872H1783.61C1783.61 257.872 1779.38 255.952 1777.85 250.832C1775.41 242.64 1771.06 227.536 1766.58 207.568C1761.59 185.808 1759.29 171.6 1758.13 164.048C1758.13 163.664 1758.01 163.408 1758.01 163.152C1758.01 158.672 1763.12 157.264 1763.12 157.264H1733.43C1733.43 157.264 1738.04 159.44 1738.04 161.36C1738.04 161.488 1738.04 161.616 1738.04 161.616C1730.23 195.536 1721.78 225.488 1712.69 249.936C1710.9 254.672 1704.25 257.872 1704.25 257.872ZM1867.47 250.704C1865.04 242.512 1860.81 227.408 1856.33 207.44C1851.34 185.68 1848.91 171.472 1847.76 163.92C1847.76 163.536 1847.63 163.28 1847.63 163.024C1847.63 158.544 1852.88 157.264 1852.88 157.264H1823.05C1823.05 157.264 1828.05 159.312 1828.05 162.512C1828.05 168.4 1823.18 184.016 1816.53 207.056C1810.77 226.896 1805.52 241.744 1802.57 249.936C1801.17 254.032 1793.87 258 1793.87 258H1814.73C1814.73 258 1808.59 256.08 1808.59 251.856C1808.59 251.472 1808.59 250.96 1808.72 250.576L1833.04 164.176C1835.34 171.856 1839.44 186.192 1844.3 207.44C1848.78 227.024 1852.62 242.128 1852.62 250.704C1852.62 254.8 1846.35 258 1846.35 258H1873.36C1873.36 258 1869.01 255.824 1867.47 250.704ZM1889.51 253.264C1889 255.568 1884.9 257.872 1884.9 257.872H1933.28C1946.47 257.872 1955.94 259.536 1955.94 259.536C1955.94 259.536 1954.4 253.136 1953.64 248.016C1952.87 241.616 1952.74 230.224 1952.74 230.224C1952.74 230.224 1947.49 253.776 1932.52 253.904H1904.61C1904.1 247.76 1903.08 233.424 1902.95 209.744H1922.4C1932.77 210.128 1935.59 216.784 1935.59 216.784V198.352C1935.59 198.352 1933.16 205.008 1922.28 205.264L1902.95 205.392C1903.08 184.272 1903.97 168.656 1904.61 161.488H1932.39C1947.49 161.488 1952.74 184.784 1952.74 184.784C1952.74 184.784 1952.87 173.52 1953.64 166.992C1954.4 161.872 1955.94 155.6 1955.94 155.6C1955.94 155.6 1946.47 157.264 1933.28 157.264H1884.9C1884.9 157.264 1889 159.184 1889.25 161.488C1889.89 168.784 1890.92 184.912 1890.92 207.312C1890.92 232.528 1890.02 246.992 1889.51 253.264ZM2001.7 208.464C2015.91 208.464 2027.3 196.944 2027.3 182.864C2027.3 168.656 2015.78 157.008 2001.58 157.008L1976.74 157.264H1967.4C1967.4 157.264 1971.37 158.672 1971.62 160.336C1972.52 167.888 1973.42 183.504 1973.42 207.568C1973.42 231.888 1972.39 246.864 1971.88 253.52C1971.5 255.696 1967.4 257.872 1967.4 257.872H1991.46C1991.46 257.872 1987.37 256.336 1987.11 253.904C1986.22 248.4 1985.45 234.96 1985.45 213.712V208.592L2001.7 208.464ZM1997.61 161.36C2008.49 161.872 2017.06 171.856 2017.06 182.864C2017.06 193.744 2007.98 204.368 1996.97 204.368H1985.45C1985.58 183.76 1986.6 168.4 1987.11 161.488C1989.54 161.36 1992.23 161.36 1994.66 161.36H1997.61ZM2043.38 253.264C2042.87 255.568 2038.78 257.872 2038.78 257.872H2087.16C2100.34 257.872 2109.82 259.536 2109.82 259.536C2109.82 259.536 2108.28 253.136 2107.51 248.016C2106.74 241.616 2106.62 230.224 2106.62 230.224C2106.62 230.224 2101.37 253.776 2086.39 253.904H2058.49C2057.98 247.76 2056.95 233.424 2056.82 209.744H2076.28C2086.65 210.128 2089.46 216.784 2089.46 216.784V198.352C2089.46 198.352 2087.03 205.008 2076.15 205.264L2056.82 205.392C2056.95 184.272 2057.85 168.656 2058.49 161.488H2086.26C2101.37 161.488 2106.62 184.784 2106.62 184.784C2106.62 184.784 2106.74 173.52 2107.51 166.992C2108.28 161.872 2109.82 155.6 2109.82 155.6C2109.82 155.6 2100.34 157.264 2087.16 157.264H2038.78C2038.78 157.264 2042.87 159.184 2043.13 161.488C2043.77 168.784 2044.79 184.912 2044.79 207.312C2044.79 232.528 2043.9 246.992 2043.38 253.264ZM2150.46 182.864C2150.46 171.856 2159.04 162 2169.92 161.488C2171.2 161.36 2172.48 161.36 2173.88 161.36C2177.34 161.36 2181.05 161.616 2184.25 161.872C2184.89 162.768 2185.4 163.792 2185.53 164.944C2186.3 170.832 2186.43 182.224 2186.43 194.896V204.496H2170.56C2159.55 204.496 2150.46 193.872 2150.46 182.864ZM2199.74 250.192C2199.1 242.384 2198.46 228.432 2198.46 207.568C2198.46 187.856 2199.23 172.88 2199.87 164.688C2200.38 159.568 2206.27 157.264 2206.27 157.264H2191.04L2165.95 157.136C2151.74 157.136 2140.22 168.656 2140.22 182.864C2140.22 196.304 2150.46 207.312 2163.64 208.336L2133.31 246.224L2133.05 246.48C2127.16 254.672 2118.72 257.744 2118.72 257.744L2148.67 257.872C2148.67 257.872 2143.04 256.08 2143.04 253.008C2143.04 252.496 2143.16 251.728 2143.68 251.088L2177.72 208.592L2186.43 208.72C2186.43 228.048 2185.66 241.616 2185.15 249.424C2184.76 253.776 2178.88 257.872 2178.88 257.872H2205.88C2205.88 257.872 2200.25 255.44 2199.74 250.192Z" fill="#242424"/>
<path d="M-279.456 250.192C-279.968 255.44 -285.6 257.872 -285.6 257.872H-258.72C-258.72 257.872 -264.352 254.544 -264.736 250.192C-265.248 242.256 -266.144 227.536 -266.144 207.568V194.64C-266.144 178.768 -266.016 164.944 -264.48 161.488H-236.704C-221.6 161.488 -216.352 185.168 -216.352 185.168C-216.352 185.168 -216.224 173.52 -215.456 166.352C-214.816 159.952 -213.28 155.984 -213.28 155.984C-213.28 155.984 -220.704 157.008 -231.712 157.264H-284.064C-284.064 157.264 -280.096 159.056 -279.584 162.128C-278.176 170.192 -278.176 184.656 -278.176 207.568C-278.176 228.432 -278.816 242.384 -279.456 250.192ZM-188.491 205.392L-176.843 163.792C-174.667 171.088 -170.699 184.912 -165.963 205.392H-188.491ZM-215.755 257.872H-195.019C-195.019 257.872 -201.291 255.952 -201.291 251.728C-201.291 251.344 -201.291 250.832 -201.163 250.448L-189.771 209.616H-164.939C-160.843 228.176 -157.131 242.64 -157.131 250.832C-157.131 254.928 -163.403 257.872 -163.403 257.872H-136.395C-136.395 257.872 -140.619 255.952 -142.155 250.832C-144.587 242.64 -148.939 227.536 -153.419 207.568C-158.411 185.808 -160.715 171.6 -161.867 164.048C-161.867 163.664 -161.995 163.408 -161.995 163.152C-161.995 158.672 -156.875 157.264 -156.875 157.264H-186.571C-186.571 157.264 -181.963 159.44 -181.963 161.36C-181.963 161.488 -181.963 161.616 -181.963 161.616C-189.771 195.536 -198.219 225.488 -207.307 249.936C-209.099 254.672 -215.755 257.872 -215.755 257.872ZM-52.53 250.704C-54.962 242.512 -59.186 227.408 -63.666 207.44C-68.658 185.68 -71.09 171.472 -72.242 163.92C-72.242 163.536 -72.37 163.28 -72.37 163.024C-72.37 158.544 -67.122 157.264 -67.122 157.264H-96.946C-96.946 157.264 -91.954 159.312 -91.954 162.512C-91.954 168.4 -96.818 184.016 -103.474 207.056C-109.234 226.896 -114.482 241.744 -117.426 249.936C-118.834 254.032 -126.13 258 -126.13 258H-105.266C-105.266 258 -111.41 256.08 -111.41 251.856C-111.41 251.472 -111.41 250.96 -111.282 250.576L-86.962 164.176C-84.658 171.856 -80.562 186.192 -75.698 207.44C-71.218 227.024 -67.378 242.128 -67.378 250.704C-67.378 254.8 -73.65 258 -73.65 258H-46.642C-46.642 258 -50.994 255.824 -52.53 250.704ZM-30.492 253.264C-31.004 255.568 -35.1 257.872 -35.1 257.872H13.284C26.468 257.872 35.94 259.536 35.94 259.536C35.94 259.536 34.404 253.136 33.636 248.016C32.868 241.616 32.74 230.224 32.74 230.224C32.74 230.224 27.492 253.776 12.516 253.904H-15.388C-15.9 247.76 -16.924 233.424 -17.052 209.744H2.404C12.772 210.128 15.588 216.784 15.588 216.784V198.352C15.588 198.352 13.156 205.008 2.276 205.264L-17.052 205.392C-16.924 184.272 -16.028 168.656 -15.388 161.488H12.388C27.492 161.488 32.74 184.784 32.74 184.784C32.74 184.784 32.868 173.52 33.636 166.992C34.404 161.872 35.94 155.6 35.94 155.6C35.94 155.6 26.468 157.264 13.284 157.264H-35.1C-35.1 157.264 -31.004 159.184 -30.748 161.488C-30.108 168.784 -29.084 184.912 -29.084 207.312C-29.084 232.528 -29.98 246.992 -30.492 253.264ZM81.704 208.464C95.912 208.464 107.304 196.944 107.304 182.864C107.304 168.656 95.784 157.008 81.576 157.008L56.744 157.264H47.4C47.4 157.264 51.368 158.672 51.624 160.336C52.52 167.888 53.416 183.504 53.416 207.568C53.416 231.888 52.392 246.864 51.88 253.52C51.496 255.696 47.4 257.872 47.4 257.872H71.464C71.464 257.872 67.368 256.336 67.112 253.904C66.216 248.4 65.448 234.96 65.448 213.712V208.592L81.704 208.464ZM77.608 161.36C88.488 161.872 97.064 171.856 97.064 182.864C97.064 193.744 87.976 204.368 76.968 204.368H65.448C65.576 183.76 66.6 168.4 67.112 161.488C69.544 161.36 72.232 161.36 74.664 161.36H77.608ZM123.383 253.264C122.871 255.568 118.775 257.872 118.775 257.872H167.159C180.343 257.872 189.815 259.536 189.815 259.536C189.815 259.536 188.279 253.136 187.511 248.016C186.743 241.616 186.615 230.224 186.615 230.224C186.615 230.224 181.367 253.776 166.391 253.904H138.487C137.975 247.76 136.951 233.424 136.823 209.744H156.279C166.647 210.128 169.463 216.784 169.463 216.784V198.352C169.463 198.352 167.031 205.008 156.151 205.264L136.823 205.392C136.951 184.272 137.847 168.656 138.487 161.488H166.263C181.367 161.488 186.615 184.784 186.615 184.784C186.615 184.784 186.743 173.52 187.511 166.992C188.279 161.872 189.815 155.6 189.815 155.6C189.815 155.6 180.343 157.264 167.159 157.264H118.775C118.775 157.264 122.871 159.184 123.127 161.488C123.767 168.784 124.791 184.912 124.791 207.312C124.791 232.528 123.895 246.992 123.383 253.264ZM230.459 182.864C230.459 171.856 239.035 162 249.915 161.488C251.195 161.36 252.475 161.36 253.883 161.36C257.339 161.36 261.051 161.616 264.251 161.872C264.891 162.768 265.403 163.792 265.531 164.944C266.299 170.832 266.427 182.224 266.427 194.896V204.496H250.555C239.547 204.496 230.459 193.872 230.459 182.864ZM279.739 250.192C279.099 242.384 278.459 228.432 278.459 207.568C278.459 187.856 279.227 172.88 279.867 164.688C280.379 159.568 286.267 157.264 286.267 157.264H271.035L245.947 157.136C231.739 157.136 220.219 168.656 220.219 182.864C220.219 196.304 230.459 207.312 243.643 208.336L213.307 246.224L213.051 246.48C207.163 254.672 198.715 257.744 198.715 257.744L228.667 257.872C228.667 257.872 223.035 256.08 223.035 253.008C223.035 252.496 223.163 251.728 223.675 251.088L257.723 208.592L266.427 208.72C266.427 228.048 265.659 241.616 265.147 249.424C264.763 253.776 258.875 257.872 258.875 257.872H285.883C285.883 257.872 280.251 255.44 279.739 250.192Z" fill="#242424"/>
</g>
</svg>
